X:1
T:Title
%%score { ( 1 4 ) | ( 2 3 ) }
L:1/8
M:4/4
K:Eb
V:1 treble nm="Grand Piano"
V:4 treble 
V:2 bass 
V:3 bass 
V:1
 z4 z2[Q:1/4=100] G2 | [GB]3 A G2 B2 | [Ge]3 d [Ac]2 A2 | [DF]3 G A2 d2 | [Ac]2 A2 G2 G2 | %5
 [GB]3 A G2 e2 | [Af]3 e d2 c2 | [GB]2 c2 A2 B2 |[M:7/8] [FA]3 G G3 |[M:1/4] [GB]2 | %10
[M:4/4] [Ac]6 z2 | [ce]6 z2 | [GB]4 [FA]4 | [EG]6 z2 | [Ac]6 z2 | %15
 [ce][=Bd][ce][Ac] [B,E_B]2 [EAc]2 | [EGB]2 [Ge]2 [DF]2 [DG]2 |[M:3/4] E6 |] %18
V:2
 z4 z2 E2 | z2 z[K:treble] F E2 G2 | z2 z B[K:bass] A,,2 F2 | z2 z[K:treble] E F2 B2 | %4
 z2 F2 [E,E]2 E2 | z2 z[K:treble] F E2 G2 | z2 z[K:treble] c B2 A2 | z2[K:treble] A2 F2 G2 | %8
[M:7/8][K:bass] z z2 E [E,E]3 |[M:1/4] [E,B,]2 |[M:4/4] [A,,A,]2 A,,2 A,,2 [A,,A,]2 | %11
 [A,,A,]2 A,,2 A,,2 [A,,A,]2 | B,,2 B,,2 B,,2 B,,2 | E,2 E,2 E,2 E,2 | %14
 [A,,A,]2 A,,2 A,,2 [A,,A,]2 | [A,,A,][A,,A,][A,,A,][A,,A,] G,,2 A,,2 | %16
 B,,2 [B,,B,]2 [B,,A,]2 [B,,B,]2 |[M:3/4] [E,G,]6 |] %18
V:3
 x8 | E,6[K:treble] z2 | E,4[K:bass] z4 | B,,6[K:treble] z2 | B,,4 z4 | E,6[K:treble] z2 | %6
 A,,6[K:treble] z2 | B,,6[K:treble] z2 |[M:7/8][K:bass] B,,- B,,3 z z2 |[M:1/4] x2 |[M:4/4] x8 | %11
 x8 | x8 | x8 | x8 | x8 | x8 |[M:3/4] x6 |] %18
V:4
 x8 | x8 | x8 | x8 | x8 | x8 | x8 | x8 |[M:7/8] x7 |[M:1/4] x2 |[M:4/4] z2 A,2 A,2 [Bd]2 | %11
 z2 A,2 A,2 [Ac]2 | E2 E2 B,2 B,2 | B,2 B,2 B,2 [B,GB]2 | z2 A,2 A,2 [Bd]2 | x8 | x8 |[M:3/4] x6 |] %18

